icons/suo.svg

<svg width="16" height="16" viewBox="0 0 16 16" fill="none" xmlns="http://www.w3.org/2000/svg">
<mask id="mask0_821_44" style="mask-type:alpha" maskUnits="userSpaceOnUse" x="2" y="2" width="12" height="12">
<path d="M4.20001 12.1499L2.20014 10.6499C2.13779 10.6036 2.08719 10.5433 2.05243 10.4738C2.01768 10.4043 1.99975 10.3276 2.00008 10.25V5.74997C1.99975 5.67229 2.01768 5.59562 2.05243 5.52616C2.08719 5.45668 2.13779 5.39636 2.20014 5.35004L4.20001 3.85004C4.14629 3.90048 4.10569 3.96328 4.08174 4.03298C4.05779 4.10268 4.05121 4.17716 4.06257 4.24997V11.75C4.05121 11.8228 4.05779 11.8973 4.08174 11.967C4.10569 12.0367 4.14629 12.0994 4.20001 12.1499Z" fill="white"/>
<path d="M13.7775 4.08256C13.6951 4.02844 13.5986 3.99974 13.5 4.00006C13.4361 3.99955 13.3727 4.01164 13.3136 4.03564C13.2543 4.05964 13.2005 4.09509 13.155 4.13994L13.1201 4.175L9.1301 7.99999L6.9225 10.1175L4.88007 12.0749L4.84501 12.11C4.79957 12.1549 4.7457 12.1904 4.68649 12.2145C4.62728 12.2385 4.5639 12.2506 4.50001 12.25C4.39184 12.2498 4.28663 12.2147 4.20001 12.1499L2.20014 10.6499C2.30174 10.7262 2.42861 10.761 2.55493 10.747C2.68124 10.7331 2.79749 10.6716 2.88001 10.5749L5.10001 7.99755L6.9225 5.88256L10.1151 2.17494C10.1614 2.12003 10.2192 2.07592 10.2844 2.0457C10.3496 2.01549 10.4206 1.99989 10.4925 2C10.5911 1.99968 10.6876 2.02838 10.77 2.0825L13.7775 4.08256Z" fill="white"/>
<path d="M13.7775 11.9174L10.7775 13.9174C10.6754 13.9841 10.5528 14.0117 10.432 13.9952C10.3113 13.9786 10.2005 13.9191 10.1201 13.8275L6.9225 10.1175L5.10001 7.99755L2.88001 5.42242C2.79675 5.32677 2.6804 5.26614 2.55429 5.25271C2.42819 5.23929 2.30167 5.27407 2.20014 5.35006L4.20001 3.85006C4.28663 3.78526 4.39184 3.75014 4.50001 3.74993C4.5639 3.74939 4.62728 3.76149 4.68649 3.78552C4.7457 3.80956 4.79957 3.84506 4.84501 3.88999L4.88007 3.92505L6.9225 5.88256L9.1301 7.99999L13.1201 11.825L13.155 11.86C13.2005 11.9049 13.2543 11.9403 13.3136 11.9643C13.3727 11.9883 13.4361 12.0004 13.5 11.9999C13.5986 12.0002 13.6951 11.9715 13.7775 11.9174Z" fill="white"/>
<path d="M14.0001 4.49992V11.5001C14.0001 11.5825 13.9799 11.6638 13.941 11.7366C13.9022 11.8094 13.846 11.8715 13.7775 11.9174L10.7775 13.9174C10.8461 13.8715 10.9022 13.8094 10.9411 13.7365C10.9798 13.6637 11.0001 13.5824 11 13.4999V2.50005C10.9989 2.41691 10.9774 2.33532 10.9373 2.26249C10.8971 2.18967 10.8397 2.12784 10.77 2.08249L13.7775 4.08255C13.8458 4.12863 13.9019 4.19078 13.9407 4.26353C13.9795 4.3363 13.9999 4.41746 14.0001 4.49992Z" fill="white"/>
</mask>
<g mask="url(#mask0_821_44)">
<path d="M4.20001 12.1499L2.20014 10.6499C2.13779 10.6036 2.08719 10.5432 2.05243 10.4738C2.01768 10.4043 1.99975 10.3276 2.00008 10.25V5.74997C1.99975 5.67229 2.01768 5.59562 2.05243 5.52616C2.08719 5.45668 2.13779 5.39636 2.20014 5.35004L4.20001 3.85004C4.14629 3.90048 4.10569 3.96328 4.08174 4.03298C4.05779 4.10268 4.05121 4.17716 4.06257 4.24997V11.75C4.05121 11.8228 4.05779 11.8973 4.08174 11.967C4.10569 12.0367 4.14629 12.0994 4.20001 12.1499Z" fill="#AD804B"/>
<g filter="url(#filter0_dd_821_44)">
<path d="M13.7774 4.08256C13.6951 4.02844 13.5986 3.99974 13.5 4.00006C13.4361 3.99955 13.3727 4.01164 13.3135 4.03564C13.2543 4.05964 13.2005 4.09509 13.155 4.13994L13.1201 4.175L10.9949 6.21256L9.1301 7.99999L6.92247 10.1175L4.88003 12.0749L4.84498 12.11C4.79954 12.1549 4.74566 12.1904 4.68646 12.2145C4.62725 12.2385 4.56387 12.2506 4.49997 12.25C4.39181 12.2498 4.2866 12.2147 4.19998 12.1499L2.20011 10.6499C2.30171 10.7262 2.42858 10.761 2.55489 10.747C2.68121 10.7331 2.79746 10.6716 2.87998 10.5749L4.0001 9.27501L5.09998 7.99756L6.92247 5.88256L10.115 2.17494C10.1614 2.12003 10.2192 2.07592 10.2844 2.0457C10.3496 2.01549 10.4206 1.99989 10.4924 2C10.5911 1.99968 10.6875 2.02838 10.77 2.0825L13.7774 4.08256Z" fill="#CE934E"/>
</g>
<g filter="url(#filter1_dd_821_44)">
<path d="M13.7774 11.9174L10.7775 13.9175C10.6754 13.9842 10.5528 14.0117 10.432 13.9952C10.3112 13.9787 10.2005 13.9192 10.1201 13.8275L6.92247 10.1175L5.09998 7.99757L4.0001 6.72257L2.87998 5.42245C2.79672 5.32679 2.68036 5.26617 2.55426 5.25274C2.42815 5.23931 2.30164 5.27409 2.20011 5.35007L4.19998 3.85008C4.2866 3.78528 4.39181 3.75017 4.49997 3.74996C4.56387 3.74941 4.62725 3.76151 4.68646 3.78555C4.74566 3.80958 4.79954 3.84509 4.84498 3.89002L4.88003 3.92508L6.92247 5.88257L9.1301 8.00001L10.9976 9.79009L13.1201 11.825L13.155 11.8601C13.2005 11.9049 13.2543 11.9403 13.3135 11.9643C13.3727 11.9884 13.4361 12.0005 13.5 11.9999C13.5986 12.0003 13.6951 11.9716 13.7774 11.9174Z" fill="#E7AB64"/>
</g>
<g filter="url(#filter2_dd_821_44)">
<path d="M14.0001 4.49992V11.5C14.0001 11.5826 13.9799 11.6638 13.941 11.7366C13.9022 11.8094 13.846 11.8715 13.7775 11.9174L10.7775 13.9175C10.8461 13.8716 10.9022 13.8094 10.941 13.7366C10.9798 13.6637 11.0001 13.5825 11 13.4999V2.50005C10.9989 2.41691 10.9774 2.33532 10.9373 2.26249C10.8971 2.18967 10.8397 2.12784 10.77 2.08249L13.7775 4.08255C13.8458 4.12863 13.9019 4.19078 13.9407 4.26354C13.9795 4.3363 13.9999 4.41746 14.0001 4.49992Z" fill="#FFB661"/>
</g>
</g>
<defs>
<filter id="filter0_dd_821_44" x="-2.98085" y="-1.88572" width="21.9392" height="20.612" filterUnits="userSpaceOnUse" color-interpolation-filters="sRGB">
<feFlood flood-opacity="0" result="BackgroundImageFix"/>
<feColorMatrix in="SourceAlpha" type="matrix" values="0 0 0 0 0 0 0 0 0 0 0 0 0 0 0 0 0 0 127 0" result="hardAlpha"/>
<feOffset dy="0.246095"/>
<feGaussianBlur stdDeviation="0.246095"/>
<feColorMatrix type="matrix" values="0 0 0 0 0 0 0 0 0 0 0 0 0 0 0 0 0 0 0.24 0"/>
<feBlend mode="normal" in2="BackgroundImageFix" result="effect1_dropShadow_821_44"/>
<feColorMatrix in="SourceAlpha" type="matrix" values="0 0 0 0 0 0 0 0 0 0 0 0 0 0 0 0 0 0 127 0" result="hardAlpha"/>
<feOffset dy="1.29524"/>
<feGaussianBlur stdDeviation="2.59048"/>
<feColorMatrix type="matrix" values="0 0 0 0 0 0 0 0 0 0 0 0 0 0 0 0 0 0 0.22 0"/>
<feBlend mode="normal" in2="effect1_dropShadow_821_44" result="effect2_dropShadow_821_44"/>
<feBlend mode="normal" in="SourceGraphic" in2="effect2_dropShadow_821_44" result="shape"/>
</filter>
<filter id="filter1_dd_821_44" x="-2.98085" y="-0.135781" width="21.9392" height="20.6118" filterUnits="userSpaceOnUse" color-interpolation-filters="sRGB">
<feFlood flood-opacity="0" result="BackgroundImageFix"/>
<feColorMatrix in="SourceAlpha" type="matrix" values="0 0 0 0 0 0 0 0 0 0 0 0 0 0 0 0 0 0 127 0" result="hardAlpha"/>
<feOffset dy="0.246095"/>
<feGaussianBlur stdDeviation="0.246095"/>
<feColorMatrix type="matrix" values="0 0 0 0 0 0 0 0 0 0 0 0 0 0 0 0 0 0 0.24 0"/>
<feBlend mode="normal" in2="BackgroundImageFix" result="effect1_dropShadow_821_44"/>
<feColorMatrix in="SourceAlpha" type="matrix" values="0 0 0 0 0 0 0 0 0 0 0 0 0 0 0 0 0 0 127 0" result="hardAlpha"/>
<feOffset dy="1.29524"/>
<feGaussianBlur stdDeviation="2.59048"/>
<feColorMatrix type="matrix" values="0 0 0 0 0 0 0 0 0 0 0 0 0 0 0 0 0 0 0.22 0"/>
<feBlend mode="normal" in2="effect1_dropShadow_821_44" result="effect2_dropShadow_821_44"/>
<feBlend mode="normal" in="SourceGraphic" in2="effect2_dropShadow_821_44" result="shape"/>
</filter>
<filter id="filter2_dd_821_44" x="-4.77289" y="-13.4604" width="34.3158" height="42.9207" filterUnits="userSpaceOnUse" color-interpolation-filters="sRGB">
<feFlood flood-opacity="0" result="BackgroundImageFix"/>
<feColorMatrix in="SourceAlpha" type="matrix" values="0 0 0 0 0 0 0 0 0 0 0 0 0 0 0 0 0 0 127 0" result="hardAlpha"/>
<feOffset/>
<feGaussianBlur stdDeviation="0.129524"/>
<feColorMatrix type="matrix" values="0 0 0 0 0 0 0 0 0 0 0 0 0 0 0 0 0 0 0.24 0"/>
<feBlend mode="normal" in2="BackgroundImageFix" result="effect1_dropShadow_821_44"/>
<feColorMatrix in="SourceAlpha" type="matrix" values="0 0 0 0 0 0 0 0 0 0 0 0 0 0 0 0 0 0 127 0" result="hardAlpha"/>
<feOffset/>
<feGaussianBlur stdDeviation="7.77143"/>
<feColorMatrix type="matrix" values="0 0 0 0 0 0 0 0 0 0 0 0 0 0 0 0 0 0 0.3 0"/>
<feBlend mode="normal" in2="effect1_dropShadow_821_44" result="effect2_dropShadow_821_44"/>
<feBlend mode="normal" in="SourceGraphic" in2="effect2_dropShadow_821_44" result="shape"/>
</filter>
</defs>
</svg>

<svg xmlns="http://www.w3.org/2000/svg" width="16" height="16" fill="none"><mask id="a" width="12" height="12" x="2" y="2" maskUnits="userSpaceOnUse" style="mask-type:alpha"><path fill="#fff" d="m4.2 12.15-2-1.5a.495.495 0 0 1-.2-.4v-4.5a.496.496 0 0 1 .2-.4l2-1.5a.453.453 0 0 0-.137.4v7.5a.453.453 0 0 0 .137.4Z"/><path fill="#fff" d="M13.777 4.083a.503.503 0 0 0-.622.057l-.035.035L9.13 8l-2.208 2.117-2.042 1.958-.035.035a.486.486 0 0 1-.345.14.502.502 0 0 1-.3-.1l-2-1.5a.5.5 0 0 0 .68-.075L5.1 7.998l1.823-2.115 3.192-3.708A.492.492 0 0 1 10.492 2c.1 0 .196.028.278.083l3.008 2Z"/><path fill="#fff" d="m13.777 11.917-3 2a.506.506 0 0 1-.657-.09l-3.197-3.71L5.1 7.997 2.88 5.423a.502.502 0 0 0-.68-.072l2-1.5a.502.502 0 0 1 .486-.064c.06.024.114.06.159.104l.035.035 2.043 1.958L9.13 8l3.99 3.825.035.035a.484.484 0 0 0 .345.14.503.503 0 0 0 .277-.083Z"/><path fill="#fff" d="M14 4.5v7a.502.502 0 0 1-.223.417l-3 2A.502.502 0 0 0 11 13.5v-11a.506.506 0 0 0-.23-.418l3.008 2A.505.505 0 0 1 14 4.5Z"/></mask><g mask="url(#a)"><path fill="#AD804B" d="m4.2 12.15-2-1.5a.496.496 0 0 1-.2-.4v-4.5a.496.496 0 0 1 .2-.4l2-1.5a.453.453 0 0 0-.137.4v7.5a.453.453 0 0 0 .137.4Z"/><g filter="url(#b)"><path fill="#CE934E" d="M13.777 4.083a.502.502 0 0 0-.622.057l-.035.035-2.125 2.038L9.13 8l-2.208 2.117-2.042 1.958-.035.035a.486.486 0 0 1-.345.14.502.502 0 0 1-.3-.1l-2-1.5a.5.5 0 0 0 .68-.075L4 9.275l1.1-1.277 1.822-2.115 3.193-3.708A.493.493 0 0 1 10.492 2c.1 0 .195.028.278.083l3.007 2Z"/></g><g filter="url(#c)"><path fill="#E7AB64" d="m13.777 11.917-3 2a.506.506 0 0 1-.657-.09l-3.198-3.71L5.1 7.997 4 6.724l-1.12-1.3a.502.502 0 0 0-.68-.073l2-1.5a.502.502 0 0 1 .486-.064c.06.024.114.06.159.104l.035.035 2.042 1.958L9.13 8l1.868 1.79 2.122 2.035.035.035a.486.486 0 0 0 .345.14.5.5 0 0 0 .277-.083Z"/></g><g filter="url(#d)"><path fill="#FFB661" d="M14 4.5v7a.502.502 0 0 1-.223.417l-3 2A.501.501 0 0 0 11 13.5v-11a.506.506 0 0 0-.23-.418l3.008 2A.505.505 0 0 1 14 4.5Z"/></g></g><defs><filter id="b" width="21.939" height="20.612" x="-2.981" y="-1.886" color-interpolation-filters="sRGB" filterUnits="userSpaceOnUse"><feFlood flood-opacity="0" result="BackgroundImageFix"/><feColorMatrix in="SourceAlpha" result="hardAlpha" values="0 0 0 0 0 0 0 0 0 0 0 0 0 0 0 0 0 0 127 0"/><feOffset dy=".246"/><feGaussianBlur stdDeviation=".246"/><feColorMatrix values="0 0 0 0 0 0 0 0 0 0 0 0 0 0 0 0 0 0 0.24 0"/><feBlend in2="BackgroundImageFix" result="effect1_dropShadow_821_44"/><feColorMatrix in="SourceAlpha" result="hardAlpha" values="0 0 0 0 0 0 0 0 0 0 0 0 0 0 0 0 0 0 127 0"/><feOffset dy="1.295"/><feGaussianBlur stdDeviation="2.59"/><feColorMatrix values="0 0 0 0 0 0 0 0 0 0 0 0 0 0 0 0 0 0 0.22 0"/><feBlend in2="effect1_dropShadow_821_44" result="effect2_dropShadow_821_44"/><feBlend in="SourceGraphic" in2="effect2_dropShadow_821_44" result="shape"/></filter><filter id="c" width="21.939" height="20.612" x="-2.981" y="-.136" color-interpolation-filters="sRGB" filterUnits="userSpaceOnUse"><feFlood flood-opacity="0" result="BackgroundImageFix"/><feColorMatrix in="SourceAlpha" result="hardAlpha" values="0 0 0 0 0 0 0 0 0 0 0 0 0 0 0 0 0 0 127 0"/><feOffset dy=".246"/><feGaussianBlur stdDeviation=".246"/><feColorMatrix values="0 0 0 0 0 0 0 0 0 0 0 0 0 0 0 0 0 0 0.24 0"/><feBlend in2="BackgroundImageFix" result="effect1_dropShadow_821_44"/><feColorMatrix in="SourceAlpha" result="hardAlpha" values="0 0 0 0 0 0 0 0 0 0 0 0 0 0 0 0 0 0 127 0"/><feOffset dy="1.295"/><feGaussianBlur stdDeviation="2.59"/><feColorMatrix values="0 0 0 0 0 0 0 0 0 0 0 0 0 0 0 0 0 0 0.22 0"/><feBlend in2="effect1_dropShadow_821_44" result="effect2_dropShadow_821_44"/><feBlend in="SourceGraphic" in2="effect2_dropShadow_821_44" result="shape"/></filter><filter id="d" width="34.316" height="42.921" x="-4.773" y="-13.46" color-interpolation-filters="sRGB" filterUnits="userSpaceOnUse"><feFlood flood-opacity="0" result="BackgroundImageFix"/><feColorMatrix in="SourceAlpha" result="hardAlpha" values="0 0 0 0 0 0 0 0 0 0 0 0 0 0 0 0 0 0 127 0"/><feOffset/><feGaussianBlur stdDeviation=".13"/><feColorMatrix values="0 0 0 0 0 0 0 0 0 0 0 0 0 0 0 0 0 0 0.24 0"/><feBlend in2="BackgroundImageFix" result="effect1_dropShadow_821_44"/><feColorMatrix in="SourceAlpha" result="hardAlpha" values="0 0 0 0 0 0 0 0 0 0 0 0 0 0 0 0 0 0 127 0"/><feOffset/><feGaussianBlur stdDeviation="7.771"/><feColorMatrix values="0 0 0 0 0 0 0 0 0 0 0 0 0 0 0 0 0 0 0.3 0"/><feBlend in2="effect1_dropShadow_821_44" result="effect2_dropShadow_821_44"/><feBlend in="SourceGraphic" in2="effect2_dropShadow_821_44" result="shape"/></filter></defs></svg>
